X:1
T:Glory Bound
T:Glory Bound
T:Mark D. Ussery
T:Mark D. Ussery, 1913
T:Public Domain Courtesy of the Cyber Hymnal™
T:Public Domain Courtesy of the Cyber Hymnal™
C:Mark D. Ussery
Z:Public Domain
Z:Courtesy of the Cyber Hymnal™
%%score ( 1 2 ) ( 3 4 )
L:1/8
Q:1/4=90
M:2/4
K:Ab
V:1 treble 
V:2 treble 
V:3 bass 
V:4 bass 
V:1
 [CE][Ec] [Ec][EA] | [DB][DA] [CA]2 | [DA][DG] [DG]2 | [CF][CE] [CE]2 | [CE][Ec] [Ec][EA] | %5
w: 1.~Tho’ I once was|lost in sin,|I am found,|I am found!|And I’m on the|
w: 2.~I heard Je- sus’|lov- ing voice,|Joy- ful sound,|joy- ful sound!|And I made Him|
w: 3.~Bright the sun- light|of His love,|All a- round,|all a- round,|Wafts my soul to|
 [DB][DA] A2 | [GB][GB] [Ge][Ge] | [Ge]4 | [Ec][Ae] [Ae][Ac] | [Ae][Ae] [Ae]2 | %10
w: up- ward way,|I am glo- ry|bound!|In the Sav- ior’s|ten- der care,|
w: then my choice,|I am glo- ry|bound!|Joy and glad- ness|thrills my soul,|
w: Heav’n a- bove,|I am glo- ry|bound!|When my jour- ney|here is o’er,|
 [Ac][EA] [EA][EGB] | [Ac][Fc] [=Ec]2 | [DB][FA] [FA][DF] | [CE][EA] [Ac][Ae] | B2 B2 | [EA]4 |: %16
w: I am kept from|ev- ery snare;|O there’s glad- ness|ev- ery- where, I’m|glo- ry|bound!|
w: As His name I|here ex- tol;|Bless- èd thought! He|made me whole, I’m|glo- ry|bound!|
w: On some bright and|hap- py shore,|I will praise Him|ev- er- more, I’m|glo- ry|bound!|
"^Refrain" cc (z x2 | c4) | cc (z x2 | c4) |1 [Ae][Ae] [Ae][Ac] | [Ae][Ae] [Ae][Ac] | [AB]2 (cB) | %23
w: |||||||
w: Glo- ry||bound! glo-||ry bound! There is|glad- ness in my|soul, I’m *|
w: |||||||
 [GB]4 x3 :|2 [EA][EB] [Ec][Fd] || [Ae][Af] [Ae][Af] | (cA) B2 | [EA]4 |] %28
w: |||||
w: glo-|ry bound! O there’s|glad- ness in my|soul, * I’m|glo-|
w: |||||
V:2
 x4 | x4 | x4 | x4 | x4 | x2 (CE) | x4 | x4 | x4 | x4 | x4 | x4 | x4 | x4 | (GE) (GE) | x4 |: %16
 x2 c2- A | (FC E2) | x2 c2- A | (FC E2) |1 x4 | x4 | x2 A2 | x7 :|2 x4 || x4 | A2 (GE) | x4 |] %28
V:3
 [A,,A,][A,,A,] [A,,A,][C,A,] | [E,G,][E,G,] [A,,A,]2 | [E,B,][E,B,] [E,B,]2 | %3
w: ~ ~ ~ ~|~ ~ ~|~ ~ ~|
 [A,,A,][A,,A,] [A,,A,]2 | [A,,A,][A,,A,] [A,,A,][C,A,] | [E,G,][E,G,] A,2 | %6
w: ~ ~ ~|~ ~ ~ ~|~ ~ ~|
 [E,D][E,D] [E,B,][E,B,] | [E,B,]4 | A,[A,C] [A,C][A,E] | [A,C][A,C] [A,C]2 | %10
w: ~ ~ ~ ~|~|~ ~ ~ ~|~ ~ ~|
 [A,E][A,C] [A,C][G,B,] | [F,A,][F,A,] [C,G,]2 | [D,F,][D,A,] [D,A,][D,A,] | %13
w: ~ ~ ~ ~|~ ~ ~|~ ~ ~ ~|
 [A,,A,][A,,C] [A,E][A,C] | (EC) [E,D]2 | [A,,C]4 |: A,,A,, z E, x | F,A, A,2 | (A,,A,, z) E, x | %19
w: ~ ~ ~ ~|~ * ~|~|~ ~ I’m|glo- * ry|bound! * I’m|
 F,A, A,2 |1 [A,C][A,C] [A,C][A,E] | [A,C][A,C] [A,C][A,E] | [F,=D]2 [B,,D]2 | E x6 :|2 %24
w: glo- * ry|bound! ~ ~ ~|~ ~ ~ ~|~ ~|~|
 [C,A,][E,G,] A,[F,A,] || [E,C][D,B,] [C,C][B,,D] | (EC) [E,D]2 | [A,,C]4 |] %28
w: ~ Hal- le- lu-|jah! * * *|||
V:4
 x4 | x4 | x4 | x4 | x4 | x2 (A,,C,) | x4 | x4 | A, x3 | x4 | x4 | x4 | x4 | x4 | E,2 x2 | x4 |: %16
 x2 A,,2- x | A,,4 | x2 A,,2- x | A,,4 |1 x4 | x4 | x4 | E,4 E/F/ED :|2 x2 A, x || x4 | E,2 x2 | %27
 x4 |] %28

